X:21195 
T:TOW ROW ROW  
B:DMI.0989
Z:Nordberg/Black
N:This appears in the "Miscellaneous" section of DMI.
To me it makes a great polka. DMI has mm 9-24 repeating, 
but my version is in three repeating parts.
R:polka 
%Q:1/4=140
M:2/4
L:1/8
K:G
P:simplified version
f|gB BA/G/|FA AB/A/|Gg ga|bg gf|
gB BA/G/|FA AB/A/|Gg ga|bg g:|
%
B|:dB de/f/|gf ed|dB de/f/|gf ed|
e2 ed|gB BA|GF GA|BG ED :|
%
GF GB|A2 AB|Gg fe|dc BA|
G2 GB|A2 AB|Gg fa|g2 g2 :|


%%vskip
P:source version
(3d/e/f/|gB BA/G/|FA AB/A/|Gg g/f/g/a/|bgg (3d/e/f/|
gB BA/G/|FA FB/A/|Gg g/f/g/a/|bg g:|
B/c/|dB de/f/|gf ed|dB de/f/|gf ed|
e/e/e/e/ ed|gB BA|G/G/G/F/ GA|BG ED|
G/G/G/F/ GB|A/A/A/A/ AB|Gg fe|dc BA|
G/G/G/G/ GB|A/A/A/A/ AB|Gg fa|g2 g:|
%

%%%

